packages/ffe-icons/icons/open/400/sm/menu_open.svg

<svg xmlns="http://www.w3.org/2000/svg" height="20" viewBox="0 -960 960 960" width="20"><path d="M180-264q-15.3 0-25.65-10.289-10.35-10.29-10.35-25.5Q144-315 154.35-325.5 164.7-336 180-336h408q15.3 0 25.65 10.289 10.35 10.29 10.35 25.5Q624-285 613.65-274.5 603.3-264 588-264H180Zm560.142-49.787L598-455q-11-10.636-11-24.818Q587-494 598-505l142.142-142.142Q751-658 765.5-658t25.5 11q11 11 11 25.5T791-596L675-480l116 116q11 11 11 25t-11 25q-11 11-25.5 11t-25.358-10.787ZM180-444q-15.3 0-25.65-10.289-10.35-10.29-10.35-25.5Q144-495 154.35-505.5 164.7-516 180-516h312q15.3 0 25.65 10.289 10.35 10.29 10.35 25.5Q528-465 517.65-454.5 507.3-444 492-444H180Zm0-180q-15.3 0-25.65-10.289-10.35-10.29-10.35-25.5Q144-675 154.35-685.5 164.7-696 180-696h408q15.3 0 25.65 10.289 10.35 10.29 10.35 25.5Q624-645 613.65-634.5 603.3-624 588-624H180Z"/></svg>

<svg xmlns="http://www.w3.org/2000/svg" height="20" viewBox="0 -960 960 960" width="20"><path d="M180-264q-15.3 0-25.65-10.29Q144-284.58 144-299.79t10.35-25.71Q164.7-336 180-336h408q15.3 0 25.65 10.29Q624-315.42 624-300.21t-10.35 25.71Q603.3-264 588-264H180Zm560.14-49.79L598-455q-11-10.64-11-24.82T598-505l142.14-142.14Q751-658 765.5-658t25.5 11q11 11 11 25.5T791-596L675-480l116 116q11 11 11 25t-11 25q-11 11-25.5 11t-25.36-10.79ZM180-444q-15.3 0-25.65-10.29Q144-464.58 144-479.79t10.35-25.71Q164.7-516 180-516h312q15.3 0 25.65 10.29Q528-495.42 528-480.21t-10.35 25.71Q507.3-444 492-444H180Zm0-180q-15.3 0-25.65-10.29Q144-644.58 144-659.79t10.35-25.71Q164.7-696 180-696h408q15.3 0 25.65 10.29Q624-675.42 624-660.21t-10.35 25.71Q603.3-624 588-624H180Z"/></svg>
